X:160
T:John Spence of Uyeasound
R:Reel
O:Shetland
M:4/4
K:A
AB |\
c2ce dc BA | ce ef a2AB | c2ce dc BA | \
cB Bc B2AB | c2ce dc BA | ce ef a2 e=g |
f2df e2ce | dB GB A2 :: cB |\
A2a2c2Bc | A2ce f2e2 |
f2ed c2Ac | dc BA Bd cB|\
A2a2c2Bc | A2ce f2e=g | f2df e2ce | dB GB A2:|
